symbols/web/nest_wifi_mistral/materialsymbolsoutlined/nest_wifi_mistral_wght100_20px.svg

<svg xmlns="http://www.w3.org/2000/svg" height="20" width="20"><path d="M7.208 16.417q-1.5 0-2.562-1.063-1.063-1.062-1.063-2.562V7.208q0-1.52 1.063-2.573 1.062-1.052 2.562-1.052h5.584q1.52 0 2.573 1.052 1.052 1.053 1.052 2.573v5.584q0 1.5-1.052 2.562-1.053 1.063-2.573 1.063ZM4.25 13.125h11.5V7.208q0-1.229-.865-2.093-.864-.865-2.093-.865H7.208q-1.229 0-2.093.865-.865.864-.865 2.093Zm.188.667q.333.896 1.062 1.427.729.531 1.708.531h5.584q.937 0 1.698-.552.76-.552 1.072-1.406ZM10 13.125Z"/></svg>

<svg xmlns="http://www.w3.org/2000/svg" height="20" width="20"><path d="M7.208 16.417Q5.708 16.417 4.646 15.354Q3.583 14.292 3.583 12.792V7.208Q3.583 5.688 4.646 4.635Q5.708 3.583 7.208 3.583H12.792Q14.312 3.583 15.365 4.635Q16.417 5.688 16.417 7.208V12.792Q16.417 14.292 15.365 15.354Q14.312 16.417 12.792 16.417ZM4.25 13.125H15.75V7.208Q15.75 5.979 14.885 5.115Q14.021 4.25 12.792 4.25H7.208Q5.979 4.25 5.115 5.115Q4.25 5.979 4.25 7.208ZM4.438 13.792Q4.771 14.688 5.5 15.219Q6.229 15.75 7.208 15.75H12.792Q13.729 15.75 14.49 15.198Q15.25 14.646 15.562 13.792ZM10 13.125Q10 13.125 10 13.125Q10 13.125 10 13.125Q10 13.125 10 13.125Q10 13.125 10 13.125Q10 13.125 10 13.125Q10 13.125 10 13.125Q10 13.125 10 13.125Q10 13.125 10 13.125Q10 13.125 10 13.125Q10 13.125 10 13.125Q10 13.125 10 13.125Q10 13.125 10 13.125Z"/></svg>
